svg/brush.svg

<svg xmlns="http://www.w3.org/2000/svg" viewBox="0 0 64 57" enable-background="new 0 0 64 57"><style type="text/css">.st0{fill:#343434;}</style><title>brush</title><desc>Created with Sketch.</desc><path class="st0" d="M61.3 2.6c-2.3-2.3-6.2-2.4-8.7-.2l-28.1 25.7-2.1 2.1-5.4 10.7c-2.7-.2-5.6 1.1-7.4 3.4-1.5 3.6-11.9 9.2-8.5 11.3 3.2 1.7 19.1-.8 21.2-4.2.8-1.4 1-3 .7-4.6l10.6-5.3 2.1-2.1 25.6-28.1c2.4-2.4 2.3-6.3 0-8.7zm-41.7 47.4c-.6.4-1.2.7-2.1.7-1.5.8-3.5 1.3-5.7 1.4-2.3.6-4.7.7-6.4.7.5-.4 1.2-1 2.1-2.1 3.2-2.2 4.3-3.3 4.9-4.9 1.3-1.7 3.8-2.3 5.7-1.4 1.9 1.2 2.6 3.6 1.5 5.6zm3.6-7.7l-1.6-1.6 1.9-3.8 3.5 3.5-3.8 1.9zm7.7-3.6l-5.7-5.7 2.1-2.1 5.7 5.7-2.1 2.1zm27.6-30.1l-22.8 25-5.4-5.4 25-22.8c.9-.8 2.3-.8 3.2.1.8.8.8 2.2 0 3.1z"/></svg>

<?xml version="1.0" encoding="utf-8"?>
<!-- Generator: Adobe Illustrator 21.0.0, SVG Export Plug-In . SVG Version: 6.00 Build 0)  -->
<svg version="1.1" id="Layer_1" xmlns="http://www.w3.org/2000/svg" xmlns:xlink="http://www.w3.org/1999/xlink" x="0px" y="0px"
	 viewBox="0 0 64 57" style="enable-background:new 0 0 64 57;" xml:space="preserve">
<style type="text/css">
	.st0{fill:#343434;}
</style>
<title>brush</title>
<desc>Created with Sketch.</desc>
<path class="st0" d="M61.3,2.6c-2.3-2.3-6.2-2.4-8.7-0.2L24.5,28.1l-2.1,2.1L17,40.9c-2.7-0.2-5.6,1.1-7.4,3.4
	c-1.5,3.6-11.9,9.2-8.5,11.3c3.2,1.7,19.1-0.8,21.2-4.2c0.8-1.4,1-3,0.7-4.6l10.6-5.3l2.1-2.1l25.6-28.1C63.7,8.9,63.6,5,61.3,2.6z
	 M19.6,50C19.5,50,19.5,50,19.6,50c-0.6,0.4-1.2,0.7-2.1,0.7C16,51.5,14,52,11.8,52.1c-2.3,0.6-4.7,0.7-6.4,0.7
	c0.5-0.4,1.2-1,2.1-2.1c3.2-2.2,4.3-3.3,4.9-4.9c1.3-1.7,3.8-2.3,5.7-1.4C20,45.6,20.7,48,19.6,50z M23.2,42.3l-1.6-1.6l1.9-3.8
	l3.5,3.5L23.2,42.3z M30.9,38.7L25.2,33l2.1-2.1l5.7,5.7L30.9,38.7z M58.5,8.6l-22.8,25l-5.4-5.4l25-22.8c0.9-0.8,2.3-0.8,3.2,0.1
	C59.3,6.3,59.3,7.7,58.5,8.6z"/>
</svg>
